X: 6
T: Return From Fingal
R: hornpipe
M: 4/4
L: 1/8
K: Edor
|:B2 GF EFGA|B2GF E2 A2|AGFA d2A2|B2A2 Bcd2|
B2 GF EFGA|B2GF E2 A2|AGFA d2AG|F2E2 E4:|
|:f2e2 e2dc|B2 AB d2A2|B2A2 d2A2|B2A2 Bcde|
f2e2 e2dc|B2 AB d2A2|AGFA d2AG|F2E2 E4:|


Tune 851	Setting 24114

